X: 20972
T: THE D---L AMANG THE MEAL MEN
R: jig
B: K\"ohler's Violin Repository, v.2, 1885 p.97 #2
F: http://www.archive.org/details/klersviolinrepos02rugg
Z: 2011 John Chambers <jc:trillian.mit.edu>
M: 6/8
L: 1/8
K: G
|:\
vg3 d3 | B3 (G2D) | EGE FAF | GAB def |\
g3 d3 | B3 (G2D) | EFE FAF | G3 G,3 :|
|: vded bgd | cdc afc | BcB gdB | AFD AFD |\
ded bgd | cdc afc | BdB cAF | G3 G,3 :|

%%sep 2 1 500

